X:1
T:The Custom House -- Jig
R:jig
B:Ryan's Mammoth Collection
Z:Contributed by Ray Davies, ray:davies99.freeserve.co.uk
M:6/8
L:1/8
K:Dmix % one sharp in the book
uA"^Segno"|:vBAF ADD|FDD ADD|BAF ADD|FEE EFA|\
BAF ADD|(FD)F d2e|fed dcB|AGF EFA :|
|:v(d/e/f)u.e d2B|AFA AFA|(d/e/f).e d2f|ede fdB|\
(d/e/f).e d2B|AFA ABd|gfe fdB|AGF EFA"^Segno""_D.S.":|
